humanity-icon-theme/Humanity/apps/32/system-software-install.svg

<?xml version="1.0" encoding="UTF-8" standalone="no"?>
<!-- Created with Inkscape (http://www.inkscape.org/) -->
<svg
   xmlns:svg="http://www.w3.org/2000/svg"
   xmlns="http://www.w3.org/2000/svg"
   xmlns:xlink="http://www.w3.org/1999/xlink"
   version="1.0"
   width="32"
   height="32"
   id="svg2759">
  <defs
     id="defs2761">
    <linearGradient
       id="linearGradient3275">
      <stop
         id="stop3277"
         style="stop-color:#ffffff;stop-opacity:0"
         offset="0" />
      <stop
         id="stop3283"
         style="stop-color:#ffffff;stop-opacity:1"
         offset="0.245" />
      <stop
         id="stop3285"
         style="stop-color:#ffffff;stop-opacity:1"
         offset="0.77350003" />
      <stop
         id="stop3279"
         style="stop-color:#ffffff;stop-opacity:0"
         offset="1" />
    </linearGradient>
    <linearGradient
       x1="44.994774"
       y1="17.5"
       x2="3.0052247"
       y2="17.5"
       id="linearGradient2886"
       xlink:href="#linearGradient3275"
       gradientUnits="userSpaceOnUse"
       gradientTransform="matrix(0.7074916,0,0,0.6940275,-0.9797992,-1.6454802)"
       spreadMethod="reflect" />
    <linearGradient
       id="linearGradient2909">
      <stop
         id="stop2911"
         style="stop-color:#ffffff;stop-opacity:1"
         offset="0" />
      <stop
         id="stop2913"
         style="stop-color:#ffffff;stop-opacity:1"
         offset="0.3021296" />
      <stop
         id="stop2915"
         style="stop-color:#ffffff;stop-opacity:0.6901961"
         offset="0.39746851" />
      <stop
         id="stop2917"
         style="stop-color:#ffffff;stop-opacity:0"
         offset="1" />
    </linearGradient>
    <linearGradient
       x1="26"
       y1="22"
       x2="26"
       y2="8"
       id="linearGradient2889"
       xlink:href="#linearGradient2909"
       gradientUnits="userSpaceOnUse"
       gradientTransform="matrix(0.9999998,0,0,0.7142857,-7.9999942,-1.7142862)" />
    <linearGradient
       id="linearGradient4559">
      <stop
         id="stop4561"
         style="stop-color:#ffffff;stop-opacity:0"
         offset="0" />
      <stop
         id="stop4563"
         style="stop-color:#ffffff;stop-opacity:0"
         offset="1" />
    </linearGradient>
    <linearGradient
       x1="23.451576"
       y1="30.554907"
       x2="43.00663"
       y2="45.934479"
       id="linearGradient2892"
       xlink:href="#linearGradient4559"
       gradientUnits="userSpaceOnUse"
       gradientTransform="matrix(0.9069493,0,0,0.8152652,-5.2693853,-5.0638302)" />
    <linearGradient
       id="linearGradient3295">
      <stop
         id="stop3297"
         style="stop-color:#c9af8b;stop-opacity:1"
         offset="0" />
      <stop
         id="stop3299"
         style="stop-color:#ad8757;stop-opacity:1"
         offset="0.23942046" />
      <stop
         id="stop3301"
         style="stop-color:#c2a57f;stop-opacity:1"
         offset="0.27582464" />
      <stop
         id="stop3303"
         style="stop-color:#9d7d53;stop-opacity:1"
         offset="1" />
    </linearGradient>
    <linearGradient
       x1="15.464298"
       y1="7.9756851"
       x2="15.464298"
       y2="45.04248"
       id="linearGradient2897"
       xlink:href="#linearGradient3295"
       gradientUnits="userSpaceOnUse"
       gradientTransform="matrix(0.7073246,0,0,0.6940275,-0.9757894,-1.3832872)" />
    <linearGradient
       id="linearGradient3199">
      <stop
         id="stop3201"
         style="stop-color:#dac197;stop-opacity:1"
         offset="0" />
      <stop
         id="stop3203"
         style="stop-color:#c1a581;stop-opacity:1"
         offset="0.23942046" />
      <stop
         id="stop3205"
         style="stop-color:#dbc298;stop-opacity:1"
         offset="0.27582464" />
      <stop
         id="stop3207"
         style="stop-color:#a68b60;stop-opacity:1"
         offset="1" />
    </linearGradient>
    <linearGradient
       x1="24.822832"
       y1="15.377745"
       x2="24.996943"
       y2="37.27668"
       id="linearGradient2895"
       xlink:href="#linearGradient3199"
       gradientUnits="userSpaceOnUse"
       gradientTransform="matrix(0.9069493,0,0,1.0807825,-5.2693853,-11.995491)" />
    <radialGradient
       cx="5"
       cy="41.5"
       r="5"
       fx="5"
       fy="41.5"
       id="radialGradient2983"
       xlink:href="#linearGradient3681"
       gradientUnits="userSpaceOnUse"
       gradientTransform="matrix(0.5938225,0,0,1.5366531,41.140892,-103.93618)" />
    <linearGradient
       id="linearGradient3703">
      <stop
         id="stop3705"
         style="stop-color:#000000;stop-opacity:0"
         offset="0" />
      <stop
         id="stop3711"
         style="stop-color:#000000;stop-opacity:1"
         offset="0.5" />
      <stop
         id="stop3707"
         style="stop-color:#000000;stop-opacity:0"
         offset="1" />
    </linearGradient>
    <linearGradient
       x1="17.554192"
       y1="46.000275"
       x2="17.554192"
       y2="34.999718"
       id="linearGradient2905"
       xlink:href="#linearGradient3703"
       gradientUnits="userSpaceOnUse"
       gradientTransform="matrix(1.7570316,0,0,1.3969574,-17.394014,-16.411698)" />
    <linearGradient
       id="linearGradient3681">
      <stop
         id="stop3683"
         style="stop-color:#000000;stop-opacity:1"
         offset="0" />
      <stop
         id="stop3685"
         style="stop-color:#000000;stop-opacity:0"
         offset="1" />
    </linearGradient>
    <radialGradient
       cx="5"
       cy="41.5"
       r="5"
       fx="5"
       fy="41.5"
       id="radialGradient2903"
       xlink:href="#linearGradient3681"
       gradientUnits="userSpaceOnUse"
       gradientTransform="matrix(0.5938225,0,0,1.5366531,-6.6594735,-103.93618)" />
    <linearGradient
       id="linearGradient2264">
      <stop
         id="stop2266"
         style="stop-color:#d7e866;stop-opacity:1"
         offset="0" />
      <stop
         id="stop2268"
         style="stop-color:#8cab2a;stop-opacity:1"
         offset="1" />
    </linearGradient>
    <linearGradient
       x1="28.314739"
       y1="20.709501"
       x2="0.81572169"
       y2="20.709501"
       id="linearGradient2755"
       xlink:href="#linearGradient2264"
       gradientUnits="userSpaceOnUse"
       gradientTransform="matrix(0,-0.4186087,-0.406317,0,33.207305,32.285444)" />
    <linearGradient
       id="linearGradient4222">
      <stop
         id="stop4224"
         style="stop-color:#ffffff;stop-opacity:1"
         offset="0" />
      <stop
         id="stop4226"
         style="stop-color:#ffffff;stop-opacity:0"
         offset="1" />
    </linearGradient>
    <linearGradient
       x1="13.471772"
       y1="25.410501"
       x2="57.726395"
       y2="25.410501"
       id="linearGradient2752"
       xlink:href="#linearGradient4222"
       gradientUnits="userSpaceOnUse"
       gradientTransform="matrix(0,0.4855051,-0.4690732,0,35.849838,10.77112)" />
  </defs>
  <g
     id="layer1">
    <g
       id="g2815">
      <g
         transform="matrix(0.6905424,0,0,0.6781532,-0.5040888,-0.4485072)"
         id="g3305"
         style="opacity:0.4;display:inline">
        <rect
           width="2.9601951"
           height="15.366531"
           x="-3.6903627"
           y="-47.848343"
           transform="scale(-1,-1)"
           id="rect2484"
           style="fill:url(#radialGradient2903);fill-opacity:1;stroke:none" />
        <rect
           width="40.41172"
           height="15.366531"
           x="3.6903627"
           y="32.481812"
           id="rect2486"
           style="fill:url(#linearGradient2905);fill-opacity:1;stroke:none" />
        <rect
           width="2.9601951"
           height="15.366531"
           x="44.110001"
           y="-47.848343"
           transform="scale(1,-1)"
           id="rect3444"
           style="fill:url(#radialGradient2983);fill-opacity:1;stroke:none;display:inline" />
      </g>
      <path
         d="M 5.3977176,4.5159458 L 26.262181,4.5159458 C 27.480184,4.5159458 28.028317,4.3170728 28.378181,5.2099738 L 30.501381,10.5 L 30.501381,28.580594 C 30.501381,29.658629 30.574181,29.493917 29.356178,29.493917 L 2.643823,29.493917 C 1.4258154,29.493917 1.4986196,29.658629 1.4986196,28.580594 L 1.4986196,10.5 L 3.6218203,5.2099738 C 3.9619244,4.3351088 4.1797101,4.5159458 5.3977176,4.5159458 L 5.3977176,4.5159458 z"
         id="path2488"
         style="fill:url(#linearGradient2895);fill-opacity:1;fill-rule:nonzero;stroke:url(#linearGradient2897);stroke-width:0.99420077;stroke-linecap:round;stroke-linejoin:miter;marker:none;stroke-miterlimit:4;stroke-dasharray:none;stroke-dashoffset:0;stroke-opacity:1;visibility:visible;display:block;overflow:visible" />
      <path
         d="M 6.0608126,5.2189598 L 25.620369,5.2189598 C 26.762197,5.2189598 27.468876,5.6052098 27.947127,6.6667188 L 29.594444,11.122183 L 29.594444,27.185141 C 29.594444,28.198889 29.015316,28.709285 27.873484,28.709285 L 4.0131603,28.709285 C 2.8713308,28.709285 2.4055699,28.147936 2.4055699,27.134186 L 2.4055699,11.122183 L 3.9997456,6.5711938 C 4.3185809,5.7484998 4.9189806,5.2189598 6.0608126,5.2189598 L 6.0608126,5.2189598 z"
         id="path2490"
         style="opacity:0.50549454;fill:none;stroke:url(#linearGradient2892);stroke-width:0.74211526;stroke-linecap:butt;stroke-linejoin:miter;marker:none;stroke-miterlimit:4;stroke-dasharray:none;stroke-dashoffset:0;stroke-opacity:1;visibility:visible;display:block;overflow:visible" />
      <path
         d="M 14,3.9999998 C 15.333332,3.9999998 16.666666,3.9999998 18,3.9999998 C 18,7.3333328 18,10.666666 18,14 C 17.606271,14 17.212541,14 16.818813,14 C 16.415688,14 16.012564,14 15.609439,14 C 15.284908,14 14.960381,14 14.635852,14 C 14.423901,14 14.211952,14 14,14 C 14,10.666666 14,7.3333328 14,3.9999998 L 14,3.9999998 z"
         id="rect3326"
         style="opacity:0.4;fill:url(#linearGradient2889);fill-opacity:1;fill-rule:nonzero;stroke:none;stroke-width:1;marker:none;visibility:visible;display:inline;overflow:visible;enable-background:accumulate" />
      <path
         d="M 1.5001181,10.5 L 30.499882,10.5"
         id="path3273"
         style="opacity:0.4;fill:none;stroke:url(#linearGradient2886);stroke-width:0.99999994px;stroke-linecap:square;stroke-linejoin:miter;stroke-opacity:1;display:inline" />
    </g>
    <path
       d="M 31.5,22.5 L 23.47988,31.518827 L 15.5,22.5 L 19.5,22.5 L 19.5,14.481173 L 27.5,14.481173 L 27.5,22.5 L 31.5,22.5 z"
       id="path2711"
       style="fill:url(#linearGradient2755);fill-opacity:1;fill-rule:nonzero;stroke:#699536;stroke-width:0.98542726;stroke-linecap:round;stroke-linejoin:round;marker:none;marker-start:none;marker-mid:none;marker-end:none;stroke-miterlimit:4;stroke-dasharray:none;stroke-dashoffset:0;stroke-opacity:1;visibility:visible;display:inline;overflow:visible" />
    <path
       d="M 29.305159,23.5 L 23.499999,30 L 17.712554,23.5 L 20.5,23.5 L 20.5,15.5 L 26.5,15.5 L 26.5,23.5 L 29.305159,23.5 z"
       id="path2713"
       style="opacity:0.35400002;fill:none;fill-opacity:1;fill-rule:nonzero;stroke:url(#linearGradient2752);stroke-width:0.98542726;stroke-linecap:butt;stroke-linejoin:miter;marker:none;marker-start:none;marker-mid:none;marker-end:none;stroke-miterlimit:4;stroke-dasharray:none;stroke-dashoffset:0;stroke-opacity:1;visibility:visible;display:inline;overflow:visible" />
  </g>
</svg>

<?xml version="1.0" encoding="UTF-8" standalone="no"?>
<!-- Created with Inkscape (http://www.inkscape.org/) -->
<svg id="svg2759" xmlns="http://www.w3.org/2000/svg" height="32" width="32" version="1.0" xmlns:xlink="http://www.w3.org/1999/xlink">
 <defs id="defs2761">
  <linearGradient id="linearGradient2886" y2="17.5" spreadMethod="reflect" gradientUnits="userSpaceOnUse" x2="3.0052" gradientTransform="matrix(.70749 0 0 .69403 -.97980 -1.6455)" y1="17.5" x1="44.995">
   <stop id="stop3277" style="stop-color:#fff;stop-opacity:0" offset="0"/>
   <stop id="stop3283" style="stop-color:#fff" offset=".245"/>
   <stop id="stop3285" style="stop-color:#fff" offset=".77350"/>
   <stop id="stop3279" style="stop-color:#fff;stop-opacity:0" offset="1"/>
  </linearGradient>
  <linearGradient id="linearGradient2889" y2="8" gradientUnits="userSpaceOnUse" x2="26" gradientTransform="matrix(1 0 0 .71429 -8 -1.7143)" y1="22" x1="26">
   <stop id="stop2911" style="stop-color:#fff" offset="0"/>
   <stop id="stop2913" style="stop-color:#fff" offset=".30213"/>
   <stop id="stop2915" style="stop-color:#fff;stop-opacity:.69020" offset=".39747"/>
   <stop id="stop2917" style="stop-color:#fff;stop-opacity:0" offset="1"/>
  </linearGradient>
  <linearGradient id="linearGradient2892" y2="45.934" gradientUnits="userSpaceOnUse" x2="43.007" gradientTransform="matrix(.90695 0 0 .81527 -5.2694 -5.0638)" y1="30.555" x1="23.452">
   <stop id="stop4561" style="stop-color:#fff;stop-opacity:0" offset="0"/>
   <stop id="stop4563" style="stop-color:#fff;stop-opacity:0" offset="1"/>
  </linearGradient>
  <linearGradient id="linearGradient2897" y2="45.042" gradientUnits="userSpaceOnUse" x2="15.464" gradientTransform="matrix(.70732 0 0 .69403 -.97579 -1.3833)" y1="7.9757" x1="15.464">
   <stop id="stop3297" style="stop-color:#c9af8b" offset="0"/>
   <stop id="stop3299" style="stop-color:#ad8757" offset=".23942"/>
   <stop id="stop3301" style="stop-color:#c2a57f" offset=".27582"/>
   <stop id="stop3303" style="stop-color:#9d7d53" offset="1"/>
  </linearGradient>
  <linearGradient id="linearGradient2895" y2="37.277" gradientUnits="userSpaceOnUse" x2="24.997" gradientTransform="matrix(.90695 0 0 1.0808 -5.2694 -11.995)" y1="15.378" x1="24.823">
   <stop id="stop3201" style="stop-color:#dac197" offset="0"/>
   <stop id="stop3203" style="stop-color:#c1a581" offset=".23942"/>
   <stop id="stop3205" style="stop-color:#dbc298" offset=".27582"/>
   <stop id="stop3207" style="stop-color:#a68b60" offset="1"/>
  </linearGradient>
  <radialGradient id="radialGradient2983" xlink:href="#linearGradient3681" gradientUnits="userSpaceOnUse" cy="41.5" cx="5" gradientTransform="matrix(.59382 0 0 1.5367 41.141 -103.94)" r="5"/>
  <linearGradient id="linearGradient2905" y2="35" gradientUnits="userSpaceOnUse" x2="17.554" gradientTransform="matrix(1.757 0 0 1.397 -17.394 -16.412)" y1="46" x1="17.554">
   <stop id="stop3705" style="stop-opacity:0" offset="0"/>
   <stop id="stop3711" offset=".5"/>
   <stop id="stop3707" style="stop-opacity:0" offset="1"/>
  </linearGradient>
  <linearGradient id="linearGradient3681">
   <stop id="stop3683" offset="0"/>
   <stop id="stop3685" style="stop-opacity:0" offset="1"/>
  </linearGradient>
  <radialGradient id="radialGradient2903" xlink:href="#linearGradient3681" gradientUnits="userSpaceOnUse" cy="41.5" cx="5" gradientTransform="matrix(.59382 0 0 1.5367 -6.6595 -103.94)" r="5"/>
  <linearGradient id="linearGradient2755" y2="20.71" gradientUnits="userSpaceOnUse" x2=".81572" gradientTransform="matrix(0 -.41861 -.40632 0 33.207 32.285)" y1="20.71" x1="28.315">
   <stop id="stop2266" style="stop-color:#d7e866" offset="0"/>
   <stop id="stop2268" style="stop-color:#8cab2a" offset="1"/>
  </linearGradient>
  <linearGradient id="linearGradient2752" y2="25.411" gradientUnits="userSpaceOnUse" x2="57.726" gradientTransform="matrix(0 .48551 -.46907 0 35.85 10.771)" y1="25.411" x1="13.472">
   <stop id="stop4224" style="stop-color:#fff" offset="0"/>
   <stop id="stop4226" style="stop-color:#fff;stop-opacity:0" offset="1"/>
  </linearGradient>
 </defs>
 <g id="layer1">
  <g id="g2815">
   <g id="g3305" style="opacity:.4" transform="matrix(.69054 0 0 .67815 -.50409 -.44851)">
    <rect id="rect2484" style="fill:url(#radialGradient2903)" transform="scale(-1)" height="15.367" width="2.9602" y="-47.848" x="-3.6904"/>
    <rect id="rect2486" style="fill:url(#linearGradient2905)" height="15.367" width="40.412" y="32.482" x="3.6904"/>
    <rect id="rect3444" style="fill:url(#radialGradient2983)" transform="scale(1,-1)" height="15.367" width="2.9602" y="-47.848" x="44.11"/>
   </g>
   <path id="path2488" style="stroke:url(#linearGradient2897);stroke-linecap:round;stroke-width:.99420;display:block;fill:url(#linearGradient2895)" d="m5.3977 4.5159h20.864c1.218 0 1.766-0.1988 2.116 0.6941l2.123 5.29v18.081c0 1.078 0.073 0.913-1.145 0.913h-26.712c-1.2182 0-1.1454 0.165-1.1454-0.913v-18.081l2.1232-5.29c0.3401-0.8749 0.5579-0.6941 1.7759-0.6941z"/>
   <path id="path2490" style="opacity:.50549;stroke:url(#linearGradient2892);stroke-width:.74212;display:block;fill:none" d="m6.0608 5.219h19.559c1.142 0 1.849 0.3862 2.327 1.4477l1.647 4.4553v16.063c0 1.014-0.579 1.524-1.721 1.524h-23.86c-1.1417 0-1.6074-0.561-1.6074-1.575v-16.012l1.5941-4.5508c0.3189-0.8227 0.9193-1.3522 2.0611-1.3522z"/>
   <path id="rect3326" style="opacity:.4;fill:url(#linearGradient2889)" d="m14 4h4v10h-1.181-1.21-0.973-0.636v-10z"/>
   <path id="path3273" style="opacity:.4;stroke:url(#linearGradient2886);stroke-linecap:square;stroke-width:1px;fill:none" d="m1.5001 10.5h29"/>
  </g>
  <path id="path2711" style="stroke-linejoin:round;stroke:#699536;stroke-linecap:round;stroke-width:.98543;fill:url(#linearGradient2755)" d="m31.5 22.5l-8.02 9.019-7.98-9.019h4v-8.019h8v8.019h4z"/>
  <path id="path2713" style="opacity:0.354;stroke:url(#linearGradient2752);stroke-width:.98543;fill:none" d="m29.305 23.5l-5.805 6.5-5.787-6.5h2.787v-8h6v8h2.805z"/>
 </g>
</svg>
